X:547
T:Comin'Through The Rye 
C:Joe Buchanan's Scottish Tome - Page 092.3
I:092 3
R:Reel
Z:Carl Allison
L:1/8
M:4/4
K:G
| D>D D<B | A>G A<B | D<D E>D | G2 FE  |
| D>D d<B | A>G A<B | D>D E<D | G2 G z |
| d>B G<B | A>G A<B | d>B G B/d/ | e2 z e |
| d>B c>A | c/2B/2A/2G/2 A z/ B/ | D<D E>D | G2 G z |]

